X:119
T:Scotch Contention. VWMLa.119
%%VWML:Anon2-3049-p67-0
F:http://www.vwml.org/record/Anon2/3049/p67
R:Reel
S:Anon. MS, late 18thC, Vaughan Williams Mem. Library
N:Greensleeves in B music..
O:England;Yorkshire
Z:vmp/efdss.Simon Wilson. Reviewed PJH 2008.
M:C|
L:1/8
Q:1/2=70
K:G
EE/E/E2 G>ABG|cABG cABG|E>EE>E GABG|cABG E2e2:|\
|:g2gf/e/ dBGB|cAeA fAeA|g>age (d/c/B/A/) GB|cABG E2e2:|
